X: 1
T:Rambling Pitchfork, The
T:Fisherman's Widow, The
R:jig
Z:id:hn-jig-74
M:6/8
K:D
~F3 AFF|dFF AFD|~G3 ABc|ded cBA|~F3 AFF|dFF AFD|GFG BAB|1 AFD D2E:|2 AFD D3||
|:d2e fed|edB AFA|d2e fed|faf gfe|d2e fed|edB AFA|~G3 BAB|1 AFD D3:|2 AFD D2E||
